X:6247
T:Stack of Barley
O:england
M:C|
L:1/8
K:A Major
ag|f2fe c2ec|BAFA BdcB|AGAB cBce|(3fga ec B2ce|
f2fe c2ec|BAFA BdcB|AGAB ceBd|c2A2 A2:|
AB|cAce a2ga|baga f2e2|a2ga fece|(3fga ec B2ga|
bagb a2gf|ecBA BdcB|AGAB ceBd|c2A2 A2:|
